dist/img/features_clean_ips.svg

<svg width="161" height="84" viewBox="0 0 161 84" fill="none" xmlns="http://www.w3.org/2000/svg">
<path d="M157.01 83.9352H3.10912C1.43498 83.9352 0 82.6707 0 80.9464V3.92787C0 2.20357 1.3154 0.939087 3.10912 0.939087H157.01C158.685 0.939087 160.12 2.20357 160.12 3.92787V81.0613C160 82.6707 158.685 83.9352 157.01 83.9352Z" fill="#E4F5FB"/>
<path d="M71.2818 22.3939V59.6231H49.3767V64.7831H98.5723V59.6231H76.6671V58.8002H76.7181V51.3251H76.6671V37.8323H76.7181V35.6636H76.6671V22.3939H71.2818Z" fill="#FFD22E"/>
<path d="M78.0863 58.8002H77.1111H76.7109H74.0182H69.8555C69.0768 58.8002 68.4437 59.4068 68.4437 60.1529V64.2461C68.4437 64.9922 69.0768 65.5989 69.8555 65.5989H74.0182H77.1111H78.0863C78.865 65.5989 79.4981 64.9922 79.4981 64.2461V63.7162C79.5272 63.5697 79.5491 63.4233 79.5491 63.2699V61.1361C79.5491 60.9827 79.5272 60.8363 79.4981 60.6899V60.1599C79.4981 59.4068 78.865 58.8002 78.0863 58.8002Z" fill="#FC3E54"/>
<path d="M100.828 37.8324H97.9246H76.7181H74.0255H47.1207C46.5021 37.8324 46 38.3135 46 38.9063V50.2514C46 50.8442 46.5021 51.3253 47.1207 51.3253H74.0255H76.7181H97.9246H100.828C101.447 51.3253 101.949 50.8442 101.949 50.2514V47.9852C101.978 47.7969 102 47.6087 102 47.4204V41.7373C102 41.5421 101.978 41.3538 101.949 41.1655V38.9063C101.949 38.3135 101.447 37.8324 100.828 37.8324Z" fill="#1DAFF4"/>
<path d="M100.828 22.1708H97.9246H74.0619H74.0255H47.1207C46.5021 22.1708 46 22.6519 46 23.2446V34.5898C46 35.1825 46.5021 35.6636 47.1207 35.6636H74.0255H76.7181H97.9246H100.828C101.447 35.6636 101.949 35.1825 101.949 34.5898V32.3235C101.978 32.1353 102 31.947 102 31.7587V26.0757C102 25.8804 101.978 25.6922 101.949 25.5039V23.2446C101.949 22.6519 101.447 22.1708 100.828 22.1708Z" fill="#1DAFF4"/>
<path d="M96.4764 23.3423H93.8856V34.7572H96.4764V23.3423Z" fill="#FCCA2E"/>
<path d="M92.3065 23.3423H89.7157V34.7572H92.3065V23.3423Z" fill="#FCCA2E"/>
<path d="M96.4764 39.0037H93.8856V50.4186H96.4764V39.0037Z" fill="#FCCA2E"/>
<path d="M92.3065 39.0037H89.7157V50.4186H92.3065V39.0037Z" fill="#FCCA2E"/>
<path d="M49.3477 26.0242C49.3477 27.0004 50.17 27.7884 51.1889 27.7884C52.2077 27.7884 53.0301 27.0004 53.0301 26.0242C53.0301 25.048 52.2077 24.26 51.1889 24.26C50.17 24.267 49.3477 25.0549 49.3477 26.0242Z" fill="#630DD3"/>
<path d="M51.5455 30.2066C50.2501 29.9695 49.1366 31.0364 49.384 32.2776C49.5223 32.9679 50.1118 33.5327 50.8323 33.6582C52.1277 33.8953 53.2411 32.8284 52.9937 31.5872C52.8554 30.9039 52.2659 30.3391 51.5455 30.2066Z" fill="#FC3E54"/>
<path d="M49.3477 41.5601C49.3477 42.5293 50.17 43.3243 51.1889 43.3243C52.2077 43.3243 53.0301 42.5363 53.0301 41.5601C53.0301 40.5839 52.2077 39.7959 51.1889 39.7959C50.17 39.8029 49.3477 40.5908 49.3477 41.5601Z" fill="#630DD3"/>
<path d="M51.5455 45.875C50.2501 45.6379 49.1366 46.7048 49.384 47.946C49.5223 48.6363 50.1118 49.2012 50.8323 49.3267C52.1277 49.5638 53.2411 48.4969 52.9937 47.2557C52.8554 46.5654 52.2659 46.0005 51.5455 45.875Z" fill="#FC3E54"/>
<path d="M116.156 35.8556C122.812 29.4277 122.812 19.0059 116.156 12.578C109.5 6.15008 98.7082 6.15008 92.0521 12.578C85.3959 19.0059 85.3959 29.4277 92.0521 35.8556C98.7082 42.2835 109.5 42.2835 116.156 35.8556Z" fill="#03E59F"/>
<path d="M100.525 30.47L95.3657 25.7983C94.2572 24.794 94.2572 23.1024 95.3657 22.098C96.3783 21.1861 97.9452 21.1861 98.9579 22.098L101.743 24.6222C102.064 24.9129 102.571 24.9129 102.899 24.6222L110.898 17.3801C111.911 16.4682 113.477 16.4682 114.49 17.3801C115.599 18.3844 115.599 20.076 114.49 21.0804L104.117 30.47C103.104 31.3885 101.537 31.3885 100.525 30.47Z" fill="white"/>
<mask id="mask0" mask-type="alpha" maskUnits="userSpaceOnUse" x="0" y="0" width="161" height="84">
<path d="M157.01 83.9352H3.10912C1.43498 83.9352 0 82.6707 0 80.9464V3.92787C0 2.20357 1.3154 0.939087 3.10912 0.939087H157.01C158.685 0.939087 160.12 2.20357 160.12 3.92787V81.0613C160 82.6707 158.685 83.9352 157.01 83.9352Z" fill="#E4F5FB"/>
</mask>
<g mask="url(#mask0)">
<path d="M124.999 76.2858C125.76 77.0207 122.524 80.3279 121.572 79.593C116.812 74.9997 105.58 64.5269 105.58 64.5269L109.007 61.2197C109.007 61.2197 120.239 71.8762 124.999 76.2858Z" fill="#2C3E50"/>
<path d="M80.0686 37.293C72.4534 45.0986 72.6437 57.4735 80.259 65.0888C87.8743 72.7041 100.44 72.5137 107.864 64.8984C115.48 57.2831 115.289 44.7179 107.674 37.293C100.059 29.4873 87.6839 29.6777 80.0686 37.293ZM106.341 38.4353C113.386 45.289 113.386 56.3312 106.532 63.3753C99.678 70.4195 88.6358 70.4195 81.5917 63.5657C74.7379 56.9023 74.5476 45.6698 81.4013 38.6256C88.2551 31.7719 99.4876 31.5815 106.341 38.4353Z" fill="#465565"/>
<path d="M77.5937 34.5785C68.6457 43.3977 68.8361 57.5451 77.9744 65.9968C87.1128 74.6322 101.772 74.4484 110.53 65.6293C119.478 56.8101 119.287 42.6628 110.149 34.0273C101.011 25.7594 86.5416 25.9431 77.5937 34.5785ZM107.103 37.3345C114.528 44.3164 114.528 55.7078 107.293 62.8733C100.059 70.0389 88.2551 70.0389 80.8302 63.057C73.4053 56.0752 73.4053 44.6838 80.6398 37.5183C87.8743 30.5364 99.678 30.3527 107.103 37.3345Z" fill="#2C3E50"/>
<path opacity="0.12" d="M113.005 50.012C112.814 39.9067 104.247 31.6387 93.7762 31.8225C83.3052 32.0062 74.738 40.2741 74.9283 50.3794C75.1187 60.4847 83.6859 68.7527 94.1569 68.5689C104.818 68.5689 113.195 60.301 113.005 50.012Z" fill="white"/>
<path d="M131.662 79.7767C132.043 80.1442 132.043 80.5116 131.662 80.8791L126.522 85.8399C126.141 86.2073 125.76 86.2073 125.38 85.8399L110.911 72.06C110.53 71.6925 110.53 71.325 110.911 70.9576L116.051 65.9968C116.432 65.6293 116.812 65.6293 117.193 65.9968L131.662 79.7767Z" fill="#FC3E54"/>
<path d="M117.703 66.4935L111.455 72.6747L133.668 93.5876L139.916 87.4064L117.703 66.4935Z" fill="#2C3E50"/>
</g>
</svg>

<svg width="161" height="84" fill="none" xmlns="http://www.w3.org/2000/svg"><path d="M157.01 83.935H3.11c-1.675 0-3.11-1.264-3.11-2.989V3.928C0 2.204 1.315.939 3.11.939h153.9c1.675 0 3.11 1.265 3.11 2.989V81.06a3.09 3.09 0 01-3.11 2.874z" fill="#E4F5FB"/><path d="M71.282 22.394v37.23H49.377v5.16h49.195v-5.16H76.667V58.8h.051v-7.475h-.05V37.832h.05v-2.168h-.05v-13.27h-5.386z" fill="#FFD22E"/><path d="M78.086 58.8h-8.23c-.78 0-1.412.607-1.412 1.353v4.093c0 .746.633 1.353 1.412 1.353h8.23c.779 0 1.412-.607 1.412-1.353v-.53a2.27 2.27 0 00.051-.446v-2.134c0-.153-.022-.3-.05-.446v-.53c0-.753-.634-1.36-1.413-1.36z" fill="#FC3E54"/><path d="M100.828 37.832H47.121c-.619 0-1.121.481-1.121 1.074v11.345c0 .593.502 1.074 1.12 1.074h53.709c.619 0 1.121-.48 1.121-1.074v-2.266c.029-.188.051-.376.051-.565v-5.683a3.73 3.73 0 00-.051-.572v-2.259c0-.593-.502-1.074-1.121-1.074zm0-15.662H47.121c-.619 0-1.121.482-1.121 1.075V34.59c0 .592.502 1.074 1.12 1.074h53.709c.619 0 1.121-.482 1.121-1.074v-2.267c.029-.188.051-.376.051-.564v-5.683a3.72 3.72 0 00-.051-.572v-2.26c0-.592-.502-1.073-1.121-1.073z" fill="#1DAFF4"/><path d="M96.476 23.342h-2.59v11.415h2.59V23.342zm-4.17 0h-2.59v11.415h2.59V23.342zm4.17 15.662h-2.59v11.415h2.59V39.004zm-4.17 0h-2.59v11.415h2.59V39.004z" fill="#FCCA2E"/><path d="M49.348 26.024c0 .976.822 1.764 1.84 1.764 1.02 0 1.842-.788 1.842-1.764s-.822-1.764-1.841-1.764c-1.019.007-1.841.795-1.841 1.764z" fill="#630DD3"/><path d="M51.545 30.207c-1.295-.238-2.408.83-2.161 2.07.138.69.728 1.256 1.448 1.381 1.296.237 2.41-.83 2.162-2.07-.139-.684-.728-1.249-1.449-1.381z" fill="#FC3E54"/><path d="M49.348 41.56c0 .97.822 1.764 1.84 1.764 1.02 0 1.842-.788 1.842-1.764s-.822-1.764-1.841-1.764c-1.019.007-1.841.795-1.841 1.764z" fill="#630DD3"/><path d="M51.545 45.875c-1.295-.237-2.408.83-2.161 2.071.138.69.728 1.255 1.448 1.38 1.296.238 2.41-.83 2.162-2.07-.139-.69-.728-1.255-1.449-1.381z" fill="#FC3E54"/><path d="M116.156 35.856c6.656-6.428 6.656-16.85 0-23.278-6.656-6.428-17.448-6.428-24.104 0-6.656 6.428-6.656 16.85 0 23.278 6.656 6.427 17.448 6.427 24.104 0z" fill="#03E59F"/><path d="M100.525 30.47l-5.16-4.672a2.474 2.474 0 010-3.7 2.7 2.7 0 013.593 0l2.785 2.524c.321.29.828.29 1.156 0l7.999-7.242a2.7 2.7 0 013.592 0 2.474 2.474 0 010 3.7l-10.373 9.39a2.686 2.686 0 01-3.592 0z" fill="#fff"/><mask id="mask0" maskUnits="userSpaceOnUse" x="0" y="0" width="161" height="84"><path d="M157.01 83.935H3.11c-1.675 0-3.11-1.264-3.11-2.989V3.928C0 2.204 1.315.939 3.11.939h153.9c1.675 0 3.11 1.265 3.11 2.989V81.06a3.09 3.09 0 01-3.11 2.874z" fill="#E4F5FB"/></mask><g mask="url(#mask0)"><path d="M124.999 76.286c.761.735-2.475 4.042-3.427 3.307-4.76-4.593-15.992-15.066-15.992-15.066l3.427-3.307s11.232 10.656 15.992 15.066z" fill="#2C3E50"/><path d="M80.069 37.293c-7.616 7.806-7.425 20.18.19 27.796 7.615 7.615 20.181 7.425 27.605-.19 7.616-7.616 7.425-20.181-.19-27.606-7.615-7.806-19.99-7.615-27.605 0zm26.272 1.142c7.045 6.854 7.045 17.896.191 24.94-6.854 7.044-17.896 7.044-24.94.19-6.854-6.663-7.044-17.895-.19-24.94 6.853-6.853 18.086-7.044 24.939-.19z" fill="#465565"/><path d="M77.594 34.578c-8.948 8.82-8.758 22.967.38 31.419 9.139 8.635 23.798 8.451 32.556-.368 8.948-8.819 8.757-22.966-.381-31.602-9.138-8.268-23.607-8.084-32.555.551zm29.509 2.756c7.425 6.982 7.425 18.374.19 25.54-7.234 7.165-19.038 7.165-26.463.183-7.425-6.982-7.425-18.373-.19-25.539 7.234-6.982 19.038-7.165 26.463-.184z" fill="#2C3E50"/><path opacity=".12" d="M113.005 50.012c-.191-10.105-8.758-18.373-19.229-18.19-10.47.184-19.038 8.452-18.848 18.557.19 10.106 8.758 18.374 19.229 18.19 10.661 0 19.038-8.268 18.848-18.557z" fill="#fff"/><path d="M131.662 79.777c.381.367.381.735 0 1.102l-5.14 4.96c-.381.368-.762.368-1.142 0L110.911 72.06c-.381-.368-.381-.735 0-1.102l5.14-4.961c.381-.368.761-.368 1.142 0l14.469 13.78z" fill="#FC3E54"/><path d="M117.703 66.493l-6.248 6.182 22.213 20.913 6.248-6.182-22.213-20.913z" fill="#2C3E50"/></g></svg>
